src/pos-icons/alpha-a-circle-outline.svg

<svg height="24" viewBox="0 0 24 24" width="24" xmlns="http://www.w3.org/2000/svg"><path d="m11 7h2a2 2 0 0 1 2 2v8h-2v-4h-2v4h-2v-8a2 2 0 0 1 2-2m0 2v2h2v-2zm1 11a8 8 0 0 0 8-8 8 8 0 0 0 -8-8 8 8 0 0 0 -8 8 8 8 0 0 0 8 8m0-18a10 10 0 0 1 10 10 10 10 0 0 1 -10 10 10 10 0 0 1 -10-10 10 10 0 0 1 10-10z"/></svg>

<?xml version="1.0" encoding="UTF-8"?><!DOCTYPE svg PUBLIC "-//W3C//DTD SVG 1.1//EN" "http://www.w3.org/Graphics/SVG/1.1/DTD/svg11.dtd"><svg xmlns="http://www.w3.org/2000/svg" xmlns:xlink="http://www.w3.org/1999/xlink" version="1.1" id="mdi-alpha-a-circle-outline" width="24" height="24" viewBox="0 0 24 24"><path d="M11,7H13A2,2 0 0,1 15,9V17H13V13H11V17H9V9A2,2 0 0,1 11,7M11,9V11H13V9H11M12,20A8,8 0 0,0 20,12A8,8 0 0,0 12,4A8,8 0 0,0 4,12A8,8 0 0,0 12,20M12,2A10,10 0 0,1 22,12A10,10 0 0,1 12,22A10,10 0 0,1 2,12A10,10 0 0,1 12,2Z" /></svg>
